!!!OTL@@FUR: Cheste viole palidute
!!!OTL@IT: Questa pallida viola
!!!OTL@EN: This pale violet
**kern
*clefG2
*k[f#c#]
*D:
*M2/4
*MM80
*>[A]
*>A
4.f#
8e
=2
4g
4f#
=3
4.f#
8e
=4
4g
4f#
=5
4a
4a
=6
4b
4a
=7
4g
4f#
=8
2e
=9
4.e
8f#
=10
8g
8a
8b
8g
=11
4.f#
8g
=12
4a
4dd
=13
4.cc#
8b
=14
8a
8b
8a
8g
=15
[2f#
=16
4f#]
4r
=17
4.e
8f#
=18
8g
8a
8b
8g
=19
4.f#
8g
=20
4a
4dd
=21
4.cc#
8b
=22
8a
8b
8a
8g
=23
[2f#
=24
4f#]
4r
==
*-
!!!ARE: Friuli
!!!ENC: Kelly Leistikow
!!!END: 2002/03/07
!!!ref: @{OTL@@FUR}/@{OTL@EN}
